X: 4
T: No_13_Ashiya_Song.krn
N: Derived from No_13_Ashiya_Song.krn
%%abc-version 2.0
%%abcx-abcm2ps-target-version 5.9.1 (29 Sep 2008)
%%abc-creator hum2abc beta
%%abcx-conversion-date 2019/03/15 08:25:35
%%humdrum-veritas 2467070541
%%humdrum-veritas-data 3098681329
%%linebreak <none>
%%barnumbers 0
L: 1/8
M: 2/4
K: D clef=bass
[K:clef=bass][M:2/4]D2D2 | 
[M:3/4]A,DA,2A,2 | 
DA,A,2A,B, | 
[M:2/4]A,2A,2 | 
A,2z A, | 
E2EE | 
EE EF | 
[M:3/4]AG GFE2 [I:setbarnb 9]| 
EB, B,B, B,E | 
ED DB, B, z | 
DA, A,A, A,D | 
DB, B,D DB, | 
A,2A,B, B,A, | 
[M:2/4]A,A, A,B, | 
[M:3/4]A,2A,2A, z | 
E2EE EF :|]  
[M:3/4]A,2A,2A, z | 
D2(3B,DDD2 [I:setbarnb 19]| 
[M:2/4](3:2:7DB,B, A,A,A,/ z/ | 
B,3/B,/ (3:2:4A,A,A,/ z/ | 
B,3/B,/ (3:2:4A,A,A,/ z/ | 
B,2A,2 | 
A,A, A, z | 
(3DDD (3DDD | 
(3DB,B, (3A,A,A, | 
[M:3/4]B,2A,2A,A, | 
[M:2/4]B,2A,2 | 
A,2A,A, | 
A,2z2 :|]  



